X: 10
T: No_19_Social_Dance_Song_(g).krn
N: Derived from No_19_Social_Dance_Song_(g).krn
%%abc-version 2.0
%%abcx-abcm2ps-target-version 5.9.1 (29 Sep 2008)
%%abc-creator hum2abc beta
%%abcx-conversion-date 2019/03/15 08:35:00
%%humdrum-veritas 256917787
%%humdrum-veritas-data 4116276434
%%linebreak <none>
%%barnumbers 0
L: 1/16
M: 2/4
K: Ab clef=bass
[K:clef=bass][M:2/4]F,F,F,2 E,E,C, z | 
C,2F,F, F,3F, | 
F,F,F,2 E,E,C, z | 
C,2F,F, F,2 z2 | 
[M:3/4]G,G,G,2 G,2F,3/G,/ F,2 z2 [I:setbarnb 6]| 
G,G,G,2 G,2F,3/G,/ F,3G, | 
[M:2/4]F,F,F,2 E,E,C, z | 
C,2F,F, F,3G, | 
F,F,F,2 E,E,C, z | 
C,2F,F, F,2 z2 :|]  



